X:1
T:Wye, LM
T:Wye, LM
T:Arranged from German melody, 1844
T:Public Domain Courtesy of the Cyber Hymnal™
C:Arranged from German melody, 1844
Z:Public Domain
Z:Courtesy of the Cyber Hymnal™
%%score 1 2 3 4
L:1/8
Q:1/4=110
M:3/4
K:G
V:1 treble 
V:2 treble 
V:3 treble-8 
V:4 bass 
V:1
 B2 | d4 d2 | c4 d2 | e4 d2 | d3 B Bd | e2 d2 c2 | (d2 c2) B2 | d4 A2 | A4 ^c2 | d4 d2 | d4 d2 | %11
 d3 d cB | c4 d2 | (e2 d2) c2 | B4 |] %15
V:2
 D2 | G4 G2 | G4 G2 | G4 F2 | G3 D DD | (C2 D2) D2 | (D2 F2) G2 | F4 F2 | E4 E2 | (D3 E) F2 | %10
 G4 F2 | G3 G GG | G4 G2 | G4 F2 | [DG]4 |] %15
V:3
 G2 | B4 d2 | e4 d2 | (c3 B) c2 | B3 G GG | G4 F2 | (G2 A2) B2 | A4 A2 | A4 G2 | (F3 G) A2 | %10
 d4 d2 | B3 B cd | e4 d2 | (dc B2) A2 | G4 |] %15
V:4
 G,2 | G,4 B,,2 | C,4 B,,2 | A,,4 D,2 | G,,3 G, G,B, | (C2 B,2) A,2 | (B,2 A,2) G,2 | D,4 D,2 | %8
 ^C,4 A,,2 | D,4 =C,2 | B,,4 D,2 | G,3 G, E,B,, | C,4 B,,2 | (C,2 D,2) E,2 | [G,,G,]4 |] %15

